src/assets/images/a-cat.svg

<?xml version="1.0" encoding="UTF-8"?>
<svg width="32px" height="36px" viewBox="0 0 32 36" version="1.1" xmlns="http://www.w3.org/2000/svg" xmlns:xlink="http://www.w3.org/1999/xlink">
    <!-- Generator: Sketch 48.2 (47327) - http://www.bohemiancoding.com/sketch -->
    <title>a-cat</title>
    <desc>Created with Sketch.</desc>
    <defs></defs>
    <g id="Page-1" stroke="none" stroke-width="1" fill="none" fill-rule="evenodd">
        <g id="a-cat">
            <path d="M21,29.6483196 C28.1797017,27.7972376 34,23.0298225 34,19 C34,14.9701775 28.1797017,10.2027624 21,8.35168043 C13.8202983,6.50059844 8,11.2680135 8,19 C8,26.7319865 13.8202983,31.4994016 21,29.6483196 Z" id="Oval-2" fill="#4A4A4A" transform="translate(21.000000, 19.000000) rotate(-75.000000) translate(-21.000000, -19.000000) "></path>
            <ellipse id="Oval-3" fill="#4A4A4A" cx="25" cy="33" rx="3" ry="2"></ellipse>
            <ellipse id="Oval-3" fill="#4A4A4A" transform="translate(17.000000, 33.000000) rotate(12.000000) translate(-17.000000, -33.000000) " cx="17" cy="33" rx="3" ry="2"></ellipse>
            <path d="M12.4808535,26.9859033 C10.7339907,26.0178009 9.15170526,26.1649931 7.7339972,27.42748 C5.60743512,29.3212104 8.01654285,30.6367761 5.99307265,32.7633541 C5.40591524,33.3804306 3.67220721,33.7704963 0.791948542,33.933551" id="Path-2" stroke="#4A4A4A" stroke-width="2"></path>
            <g id="cat" transform="translate(11.000000, 0.000000)" fill-rule="nonzero">
                <circle id="head" fill="#4A4A4A" cx="10.5" cy="9.5" r="8.5"></circle>
                <g id="eye-left" transform="translate(3.000000, 4.000000)">
                    <ellipse id="b-eye-right" fill="#9B9B9B" transform="translate(4.000000, 4.000000) rotate(46.000000) translate(-4.000000, -4.000000) " cx="4" cy="4" rx="2.88372093" ry="2.75968992"></ellipse>
                    <ellipse id="eye-right" fill="#B8E986" transform="translate(3.937984, 4.000000) rotate(26.000000) translate(-3.937984, -4.000000) " cx="3.9379845" cy="4" rx="2.63565891" ry="2.26356589"></ellipse>
                    <ellipse id="in-eye-left" fill="#000000" cx="4.03100775" cy="3.2248062" rx="1" ry="1.48837209"></ellipse>
                </g>
                <g id="eye-right" transform="translate(14.000000, 8.000000) scale(-1, 1) translate(-14.000000, -8.000000) translate(10.000000, 4.000000)">
                    <ellipse id="b-eye-right" fill="#9B9B9B" transform="translate(4.000000, 4.000000) rotate(46.000000) translate(-4.000000, -4.000000) " cx="4" cy="4" rx="2.88372093" ry="2.75968992"></ellipse>
                    <ellipse id="Oval" fill="#B8E986" transform="translate(3.937984, 4.000000) rotate(26.000000) translate(-3.937984, -4.000000) " cx="3.9379845" cy="4" rx="2.63565891" ry="2.26356589"></ellipse>
                    <ellipse id="in-eye-right" fill="#000000" cx="3.96899225" cy="3.2248062" rx="1" ry="1.48837209"></ellipse>
                </g>
                <path d="M2.1458552,10 C2.20527422,11.0410263 2.15411201,11.6804041 1.99236855,11.9181333 C1.83062511,12.1558625 1.49983559,12.6462736 1,13.3893666 C1.79466052,13.2779156 2.3857817,13.1532875 2.77336352,13.0154824 C3.16094535,12.8776772 3.67533892,12.6092383 4.31654425,12.2101656 C4.10567282,12.9333652 3.91529887,13.4378629 3.74542241,13.7236587 C3.57554595,14.0094545 3.21316252,14.4349016 2.65827213,15 C3.7157121,14.7219003 4.44506716,14.4861491 4.84633729,14.2927464 C5.24760744,14.0993438 5.63216166,13.7982171 6,13.3893666" id="hair-left" fill="#4A4A4A"></path>
                <path d="M16.1458552,11 C16.2052742,12.0410263 16.154112,12.6804041 15.9923685,12.9181333 C15.8306251,13.1558625 15.4998356,13.6462736 15,14.3893666 C15.7946605,14.2779156 16.3857817,14.1532875 16.7733635,14.0154824 C17.1609454,13.8776772 17.6753389,13.6092383 18.3165442,13.2101656 C18.1056728,13.9333652 17.9152989,14.4378629 17.7454224,14.7236587 C17.575546,15.0094545 17.2131625,15.4349016 16.6582721,16 C17.7157121,15.7219003 18.4450672,15.4861491 18.8463373,15.2927464 C19.2476074,15.0993438 19.6321617,14.7982171 20,14.3893666" id="hair-right" fill="#4A4A4A" transform="translate(17.500000, 13.500000) scale(-1, 1) translate(-17.500000, -13.500000) "></path>
                <path d="M1.68751311,9 C1.72316453,9.62461578 1.6924672,10.0082424 1.59542113,10.15088 C1.49837506,10.2935175 1.29990135,10.5877642 1,11.0336199 C1.47679631,10.9667494 1.83146902,10.8919725 2.06401811,10.8092894 C2.2965672,10.7266063 2.60520335,10.565543 2.98992655,10.3260994 C2.86340369,10.7600192 2.74917932,11.0627178 2.64725344,11.2341952 C2.54532756,11.4056727 2.32789751,11.660941 1.99496327,12 C2.62942725,11.8331402 3.06704029,11.6916895 3.30780237,11.5756478 C3.54856445,11.4596063 3.77929699,11.2789303 4,11.0336199" id="hair-uleft" fill="#4A4A4A" transform="translate(2.500000, 10.500000) rotate(31.000000) translate(-2.500000, -10.500000) "></path>
                <path d="M17.6875131,9 C17.7231645,9.62461578 17.6924672,10.0082424 17.5954211,10.15088 C17.498375,10.2935175 17.2999013,10.5877642 17,11.0336199 C17.4767963,10.9667493 17.831469,10.8919725 18.0640181,10.8092894 C18.2965672,10.7266063 18.6052033,10.565543 18.9899265,10.3260994 C18.8634037,10.7600192 18.7491793,11.0627177 18.6472534,11.2341952 C18.5453275,11.4056727 18.3278975,11.6609409 17.9949633,12 C18.6294272,11.8331402 19.0670403,11.6916895 19.3078023,11.5756478 C19.5485644,11.4596062 19.779297,11.2789303 20,11.0336199" id="hair-uriught" fill="#4A4A4A" transform="translate(18.500000, 10.500000) scale(-1, 1) rotate(31.000000) translate(-18.500000, -10.500000) "></path>
                <g id="ear-left">
                    <path d="M2.44333767,7 C1.4379614,6.31930692 0.764370635,5.68038901 0.422565364,5.08324624 C0.0807600948,4.48610347 -0.0536852273,2.79168806 0.0192293968,0 C1.02703569,0.421842296 1.926875,0.770197787 2.71874734,1.04506648 C3.51061968,1.31993517 4.60437057,2.20260466 6,3.69307493" id="Path-3" fill="#4A4A4A"></path>
                    <path d="M1.92158557,5.52631579 C1.29765501,5.0203875 0.889659059,4.50387866 0.697597694,3.97678924 C0.505536336,3.44969984 0.367678248,2.32220048 0.284023433,0.594291177 C0.733460865,0.878021894 1.22898922,1.13699653 1.77060851,1.37121508 C2.31222779,1.60543363 3.23182888,2.19222159 4.52941176,3.13157895 C3.66368096,3.44448499 3.05382953,3.76558289 2.69985745,4.09487267 C2.34588538,4.42416244 2.08646142,4.90131015 1.92158557,5.52631579 Z" id="Path-4" fill="#9B9B9B"></path>
                </g>
                <g id="ear-right" transform="translate(17.000000, 3.500000) scale(-1, 1) translate(-17.000000, -3.500000) translate(14.000000, 0.000000)">
                    <path d="M2.44333767,7 C1.4379614,6.31930692 0.764370635,5.68038901 0.422565364,5.08324624 C0.0807600948,4.48610347 -0.0536852273,2.79168806 0.0192293968,0 C1.02703569,0.421842296 1.926875,0.770197787 2.71874734,1.04506648 C3.51061968,1.31993517 4.60437057,2.20260466 6,3.69307493" id="Path-3" fill="#4A4A4A"></path>
                    <path d="M1.92158557,5.52631579 C1.29765501,5.0203875 0.889659059,4.50387866 0.697597694,3.97678924 C0.505536336,3.44969984 0.367678248,2.32220048 0.284023433,0.594291177 C0.733460865,0.878021894 1.22898922,1.13699653 1.77060851,1.37121508 C2.31222779,1.60543363 3.23182888,2.19222159 4.52941176,3.13157895 C3.66368096,3.44448499 3.05382953,3.76558289 2.69985745,4.09487267 C2.34588538,4.42416244 2.08646142,4.90131015 1.92158557,5.52631579 Z" id="Path-4" fill="#9B9B9B"></path>
                </g>
                <g id="nose" transform="translate(9.000000, 12.000000)" fill="#A885AC">
                    <path d="M1.00589298,1.94945973 C0.733447296,1.72811067 0.543143241,1.53860713 0.434980818,1.38094907 C0.341670711,1.24493973 0.203836604,0.978626067 0.0214783902,0.582008067 C-0.0224075579,0.486558533 0.00310296884,0.364117733 0.0784577595,0.3085288 C0.085363707,0.303434333 0.0925650229,0.299011333 0.0999996546,0.295297933 C0.494145398,0.0984326667 0.796109824,0 1.00589298,0 C1.21690425,0 1.50220615,0.0995885333 1.86179863,0.298765667 L1.86179847,0.298766133 C1.94169611,0.343021133 1.9781429,0.460938667 1.94320474,0.562142267 C1.94270237,0.563597333 1.94218642,0.5650448 1.94165684,0.566484267 C1.79811389,0.9566854 1.677491,1.2281736 1.5797882,1.38094907 C1.46741715,1.5566608 1.27611873,1.7461644 1.00589298,1.94945973 Z" id="path-1"></path>
                </g>
            </g>
        </g>
    </g>
</svg>

<svg width="32" height="36" viewBox="0 0 32 36" xmlns="http://www.w3.org/2000/svg">
  <title>
    a-cat
  </title>
  <g id="Page-1" fill="none" fill-rule="evenodd">
    <g id="a-cat">
      <path d="M21 29.648C28.18 27.798 34 23.03 34 19c0-4.03-5.82-8.797-13-10.648C13.82 6.5 8 11.268 8 19c0 7.732 5.82 12.5 13 10.648z" id="Oval-2" fill="#4A4A4A" transform="rotate(-75 21 19)"/>
      <ellipse id="right-paw" fill="#4A4A4A" cx="25" cy="33" rx="3" ry="2"/>
      <ellipse id="left-paw" fill="#4A4A4A" transform="rotate(12 17 33)" cx="17" cy="33" rx="3" ry="2"/>
      <path d="M12.48 26.986c-1.746-.968-3.328-.821-4.746.441-2.127 1.894.283 3.21-1.74 5.336-.588.617-2.322 1.007-5.202 1.17" id="Path-2" stroke="#4A4A4A" stroke-width="2"/>
      <g id="cat" transform="translate(11)" fill-rule="nonzero">
        <circle id="head" fill="#4A4A4A" cx="10.5" cy="9.5" r="8.5"/>
        <g id="eye-left" transform="translate(3 4)">
          <ellipse id="b-eye-right" fill="#9B9B9B" transform="rotate(46 4 4)" cx="4" cy="4" rx="2.884" ry="2.76"/>
          <ellipse id="eye-right" fill="#B8E986" transform="rotate(26 3.938 4)" cx="3.938" cy="4" rx="2.636" ry="2.264"/>
          <ellipse id="in-eye-left" fill="#000" cx="4.031" cy="3.225" rx="1" ry="1.488"/>
        </g>
        <g id="eye-right" transform="matrix(-1 0 0 1 18 4)">
          <ellipse id="b-eye-right" fill="#9B9B9B" transform="rotate(46 4 4)" cx="4" cy="4" rx="2.884" ry="2.76"/>
          <ellipse id="Oval" fill="#B8E986" transform="rotate(26 3.938 4)" cx="3.938" cy="4" rx="2.636" ry="2.264"/>
          <ellipse id="in-eye-right" fill="#000" cx="3.969" cy="3.225" rx="1" ry="1.488"/>
        </g>
        <path d="M2.146 10c.06 1.041.008 1.68-.154 1.918L1 13.39c.795-.111 1.386-.236 1.773-.374.388-.137.902-.406 1.544-.805-.211.723-.402 1.228-.572 1.514-.17.285-.532.71-1.087 1.276 1.058-.278 1.787-.514 2.188-.707.402-.194.786-.495 1.154-.904" id="hair-left" fill="#4A4A4A"/>
        <path d="M16.146 11c.06 1.041.008 1.68-.154 1.918L15 14.39c.795-.111 1.386-.236 1.773-.374.388-.137.902-.406 1.544-.805-.211.723-.402 1.228-.572 1.514-.17.285-.532.71-1.087 1.276 1.058-.278 1.787-.514 2.188-.707.402-.194.786-.495 1.154-.904" id="hair-right" fill="#4A4A4A" transform="matrix(-1 0 0 1 35 0)"/>
        <path d="M1.688 9c.035.625.004 1.008-.093 1.15L1 11.035c.477-.067.831-.142 1.064-.225.233-.082.541-.243.926-.483-.127.434-.24.737-.343.908-.102.172-.32.427-.652.766.634-.167 1.072-.308 1.313-.424.24-.116.471-.297.692-.542" id="hair-uleft" fill="#4A4A4A" transform="rotate(31 2.5 10.5)"/>
        <path d="M17.688 9c.035.625.004 1.008-.093 1.15l-.595.884c.477-.067.831-.142 1.064-.225.233-.082.541-.243.926-.483-.127.434-.24.737-.343.908-.102.172-.32.427-.652.766.634-.167 1.072-.308 1.313-.424.24-.116.471-.297.692-.542" id="hair-uriught" fill="#4A4A4A" transform="scale(-1 1) rotate(31 0 -56.209)"/>
        <g id="ear-left">
          <path d="M2.443 7C1.438 6.32.764 5.68.423 5.083.08 4.486-.054 2.792.019 0c1.008.422 1.908.77 2.7 1.045C3.51 1.32 4.604 2.203 6 3.693" id="Path-3" fill="#4A4A4A"/>
          <path d="M1.922 5.526C1.298 5.02.89 4.504.698 3.976.506 3.45.368 2.323.284.595c.45.284.945.543 1.487.777.541.234 1.46.821 2.758 1.76-.865.313-1.475.635-1.83.964-.353.33-.613.806-.777 1.431z" id="Path-4" fill="#9B9B9B"/>
        </g>
        <g id="ear-right" transform="matrix(-1 0 0 1 20 0)">
          <path d="M2.443 7C1.438 6.32.764 5.68.423 5.083.08 4.486-.054 2.792.019 0c1.008.422 1.908.77 2.7 1.045C3.51 1.32 4.604 2.203 6 3.693" id="Path-3" fill="#4A4A4A"/>
          <path d="M1.922 5.526C1.298 5.02.89 4.504.698 3.976.506 3.45.368 2.323.284.595c.45.284.945.543 1.487.777.541.234 1.46.821 2.758 1.76-.865.313-1.475.635-1.83.964-.353.33-.613.806-.777 1.431z" id="Path-4" fill="#9B9B9B"/>
        </g>
        <g id="nose" transform="translate(9 12)" fill="#A885AC">
          <path d="M1.006 1.95c-.273-.222-.463-.411-.571-.57C.342 1.246.204.98.021.583-.022.487.003.364.078.309A.147.147 0 0 1 .1.295C.494.098.796 0 1.006 0c.21 0 .496.1.856.299.08.044.116.162.081.263a.23.23 0 0 1-.001.004c-.144.39-.265.662-.362.815-.113.176-.304.365-.574.568z" id="path-1"/>
        </g>
      </g>
    </g>
  </g>
</svg>
